X:1
T:The Pride of Glencoe
M:3/4
L:1/4
K:A
 C C3/2 E,/4 [/4/4] E,/4| [/4/4] F,/2 A,3/2 D| D C/2 D3/2| E2C/2-D/2|\
E/2-F/2 G D| E C3/2 E/2-| ED/2-C/2-C/2 A,/4 /4B,/4| [/4/4] A,2 z| C C3/2 E,/4 [/4/4] E,/4|\
 [/4/4] [/4/4] F,/2 [/4/4] A,3/2 D| D C/2 D3/2| E2 C/2D/2|E/2-F/2 G D|\
 E C3/2 E/2-| ED/2-C/2 A,| B, A,2|
